X: 41
T: Roaring Mary
R: reel
Z: 2012 John Chambers <jc@trillian.mit.edu>
B: "100 Essential Irish Session Tunes" 1995 Dave Mallinson, ed.
M: 4/4
L: 1/8
K: D
A |\
"D"DFFG AFFG | "D7"AB ((3def) "G"g2fe | "D"dedB ABde | "Em"fede "A7"fedA |
"D"DFFG AFFG | "D7"AB ((3def) "G"g2fe | "D"dedB "Bm"ABdf | "A7"afea "D"fd d :|
|: f |\
"D"abag fgfe | "D7"dedc "G"BGG2 | "Em"eg ((3gfg) bggb | "D"affa "A7"geed |
"D"DFFG AFFG | "D7"AB ((3def) "G"g2fe | "D"dedB "Bm"ABdf | "A7"afea "D"fd d :|
